illustrations/third-party-logos/ci_cd-template-logos/django.svg

<svg width="64" height="64" viewBox="0 0 64 64" fill="none" xmlns="http://www.w3.org/2000/svg">
<path fill-rule="evenodd" clip-rule="evenodd" d="M10.6325 32.1815C10.6242 33.7679 11.7874 34.7136 13.6437 34.2836V30.0793C11.764 29.5068 10.6404 30.665 10.6325 32.1815ZM13.7005 24H16.2572V36.1017C13.8065 36.5024 11.4594 36.7565 9.78028 35.8176C7.61826 34.6088 7.44445 30.7675 9.15526 29.0566C10.0227 28.1892 11.7689 27.5786 13.6437 27.9771V24.1705C13.6388 24.0898 13.6343 24.0095 13.7005 24Z" fill="black"/>
<path fill-rule="evenodd" clip-rule="evenodd" d="M20.4047 26.6703H17.8481V24H20.4047V26.6703Z" fill="black"/>
<path fill-rule="evenodd" clip-rule="evenodd" d="M51.0851 34.3972C53.8723 35.4803 54.1807 29.4084 51.3692 29.9655C49.6233 30.3116 49.6794 33.8509 51.0851 34.3972ZM51.1988 27.8634C53.3272 27.6358 54.933 28.5751 55.5736 30.0224C56.6667 32.4918 55.5135 35.3254 53.7555 36.1585C52.8444 36.5903 51.8903 36.6314 51.0283 36.5562C48.3641 36.3238 46.6839 33.6087 47.6194 30.5905C47.7658 30.1181 47.9303 29.8292 48.0172 29.6815C48.5963 28.6968 49.574 28.0371 51.1988 27.8634Z" fill="black"/>
<path fill-rule="evenodd" clip-rule="evenodd" d="M23.9274 33.4314C23.2202 34.6199 24.997 34.9046 26.1431 34.5678V32.8065C25.2624 32.9294 24.2601 32.8722 23.9274 33.4314ZM28.4157 36.2154C26.3038 36.3369 23.0942 37.0563 21.9388 35.6473C21.26 34.8194 21.333 33.2403 21.9388 32.4656C22.7217 31.4646 24.4306 31.2463 25.9727 31.102C26.1127 30.7573 26.0183 30.1964 25.859 29.9656C24.4485 29.6063 23.047 30.1631 22.0525 30.5906V28.6021C23.5546 27.912 27.0339 27.1853 28.0749 28.7725C28.6216 29.6062 28.4157 31.0601 28.4157 32.3519V36.2154Z" fill="black"/>
<path fill-rule="evenodd" clip-rule="evenodd" d="M37.3926 36.3291H34.8359V33.0338C34.8359 31.9488 35.0114 30.573 34.4381 30.1362C33.9891 29.7939 32.924 29.9657 32.2792 30.1362V36.3291H29.7225V28.4317C32.3361 27.7528 37.0538 27.0249 37.3926 30.3066C37.5597 31.9246 37.2688 34.3521 37.3926 36.3291Z" fill="black"/>
<path fill-rule="evenodd" clip-rule="evenodd" d="M41.1992 33.6019C41.6295 34.298 42.7945 34.559 43.7559 34.1132C43.7031 32.7835 43.6846 31.4195 43.6991 30.0225C41.4895 29.4387 40.1727 31.9414 41.1992 33.6019ZM47.6194 28.2044C47.3918 28.8859 47.0588 29.4619 46.7672 30.0794C46.5037 30.1384 46.2753 29.9746 46.1421 30.0794C46.0838 32.8489 46.732 36.6034 45.6308 38.6016C44.9678 39.8047 43.7472 40.5766 41.881 40.7038C40.5215 40.7965 39.4664 40.5744 38.4721 40.1925V37.8062C39.6384 38.4872 42.5854 39.0424 43.415 37.6358C43.6591 37.2219 43.6436 36.7942 43.7559 36.1586C43.2217 36.1866 42.7032 36.434 42.0515 36.4427C39.372 36.4782 37.7142 34.3447 38.3584 31.386C38.6076 30.2416 39.2782 29.3201 40.1766 28.7726C42.0425 27.6353 44.9107 27.7217 47.6194 28.2044Z" fill="black"/>
<path fill-rule="evenodd" clip-rule="evenodd" d="M20.4048 28.0225C20.4019 29.9051 20.4023 31.258 20.4021 33.5452C20.2935 35.7929 20.3188 37.5828 19.4958 38.6583C19.3334 38.8704 18.9887 39.1798 18.7003 39.397C18.4581 39.5793 17.9965 39.9491 17.7345 39.9652C17.4703 39.9814 16.7916 39.5985 16.4845 39.4538C16.0812 39.2638 15.7083 39.0116 15.2914 38.8857C16.2639 38.283 17.1871 37.8312 17.564 36.613C17.8918 35.5536 17.8481 34.0184 17.8481 32.5223C17.8481 31.045 17.8547 29.3275 17.8547 28.0231L20.4048 28.0225V28.0225Z" fill="black"/>
</svg>

<svg width="64" height="64" fill="none" xmlns="http://www.w3.org/2000/svg"><path fill-rule="evenodd" clip-rule="evenodd" d="M10.633 32.181c-.009 1.587 1.154 2.533 3.01 2.103v-4.205c-1.879-.572-3.003.586-3.01 2.102zM13.7 24h2.556v12.102c-2.45.4-4.798.655-6.477-.284-2.162-1.21-2.336-5.05-.625-6.761.868-.868 2.614-1.478 4.489-1.08v-3.806c-.005-.081-.01-.162.056-.171zM20.405 26.67h-2.557V24h2.557v2.67zM51.085 34.397c2.787 1.083 3.096-4.989.284-4.431-1.746.346-1.69 3.885-.284 4.431zm.114-6.534c2.128-.227 3.734.712 4.375 2.16 1.093 2.469-.06 5.302-1.819 6.135-.91.432-1.865.473-2.727.398-2.664-.232-4.344-2.947-3.409-5.965.147-.473.311-.762.398-.91.58-.984 1.557-1.644 3.182-1.818zM23.927 33.431c-.707 1.189 1.07 1.474 2.216 1.137v-1.761c-.88.122-1.883.065-2.216.624zm4.489 2.784c-2.112.122-5.322.841-6.477-.568-.679-.828-.606-2.407 0-3.181.783-1.001 2.492-1.22 4.034-1.364.14-.345.045-.906-.114-1.136-1.41-.36-2.812.197-3.807.625v-1.989c1.503-.69 4.982-1.417 6.023.17.547.834.34 2.288.34 3.58v3.863zM37.393 36.33h-2.557v-3.296c0-1.085.175-2.461-.398-2.898-.449-.342-1.514-.17-2.159 0v6.193h-2.557v-7.897c2.614-.68 7.332-1.407 7.67 1.875.168 1.618-.123 4.045 0 6.022zM41.2 33.602c.43.696 1.594.957 2.556.511a81.771 81.771 0 01-.057-4.09c-2.21-.584-3.526 1.918-2.5 3.579zm6.42-5.398c-.228.682-.561 1.258-.853 1.875-.263.06-.492-.104-.625 0-.058 2.77.59 6.524-.511 8.523-.663 1.203-1.884 1.975-3.75 2.102a7.634 7.634 0 01-3.409-.511v-2.387c1.166.681 4.113 1.236 4.943-.17.244-.414.229-.842.34-1.477-.533.028-1.052.275-1.704.284-2.679.035-4.337-2.098-3.693-5.057.25-1.144.92-2.066 1.819-2.613 1.865-1.138 4.734-1.051 7.442-.569z" fill="#092E20"/><path fill-rule="evenodd" clip-rule="evenodd" d="M20.405 28.023c-.003 1.882-.003 3.235-.003 5.522-.108 2.248-.083 4.038-.906 5.113-.163.212-.507.522-.796.739-.242.182-.703.552-.965.568-.265.016-.943-.367-1.25-.511-.404-.19-.777-.442-1.194-.568.973-.603 1.896-1.055 2.273-2.273.328-1.06.284-2.595.284-4.09 0-1.478.007-3.196.007-4.5h2.55z" fill="#092E20"/></svg>
